X: 93
T: No_30_Lamenting_the_Dead_Eagles.krn
N: Derived from No_30_Lamenting_the_Dead_Eagles.krn
%%abc-version 2.0
%%abcx-abcm2ps-target-version 5.9.1 (29 Sep 2008)
%%abc-creator hum2abc beta
%%abcx-conversion-date 2019/03/15 08:37:56
%%humdrum-veritas 1296255722
%%humdrum-veritas-data 407305610
%%linebreak <none>
%%barnumbers 0
L: 1/8
M: 3/4
K: A clef=bass
F,2 [I:setbarnb 1]| 
C3A, C/C3/ | 
A,3G, A,/A,3/ | 
G,F,- F,F, G,/F,3/ | 
F,3F, F,/F,3/ | 
C,4F,2 | 
(G,2F,)F, A,/A,3/ | 
(A,2G,)F, G,/F,3/ | 
F,3F, F,/F,3/ | 
[M:2/4]C,4 |]  



